X:1
T:A minor Stephen Jenks, 1803
T:Isaac Watts, 1719 (Psalm 51, Part 2)     88. 88. (L. M.)
T:Confession
T:Transcribed from Jenks, Delights of Harmony, 1805.
%%score [ 1 2 3 4 ]
L:1/8
Q:1/4=100
M:2/4
K:C
V:1 treble nm="Treble" snm="Tr."
V:2 treble nm="Counter" snm="C."
V:3 treble-8 nm="Tenor" snm="T."
V:4 bass nm="Bass" snm="B."
V:1
 A4 | c2 d2 | e2 ec | B2 A2 | G2 AB | c2 ce | A2 G2 | GE ^G2 | A4 | z4 | B2 BB | c2 cA | G2 GE | %13
w: ||||||||||Sprung from the|man whose *|guil- ty *|
w: ||||||||||Nor run- ning|brook, nor *|flood, nor *|
 E3 z | z4 | z2 z G | c2 cA | B2 AB | c2 B2 | A4 | z4 | z4 | z4 | z4 | z2 z G | c2 cA | B2 BG | %27
w: fall||||||||||||||
w: sea,||||||||||||||
 A2 EA | G3 e | c2 e2 | d2 B2 | ce de | e3 c | e>f ed | c2 cA | AB ^G2 | A4 | z2 A2 | ed cB | %39
w: ||||||||||||
w: ||||||||||||
 A2 c2 | B>c BA | ^G3 G | A>G AB | c2 (3def | e2 e2 | e2 ed |: cA GA | B2 z c | ec df | e2 z G | %50
w: |||||||||||
w: |||||||||||
 c2 d2 | e2 (3GAB | c2 B2 |1 A2 ed :|2 A4- || A4 |] %56
w: ||||||
w: ||||||
V:2
 E4 | E2 ^G2 | A2 AF | G2 E2 | E2 G2 | G2 A2 | A2 EG | G2 E2 | E4 | z4 | z4 | z4 | E2 EE | G2 G2 | %14
w: 1.~~Lord,|I am|vile, con- *|ceived in|sin; And|born un-|ho- ly *|and un-|clean;||||Sprung from the|man whose|
w: 2.~~No|blee- ding|bird, nor *|blee- ding|beast, Nor|hys- sop|branch, nor *|sprink- ling|priest,||||Nor run- ning|brook, nor|
 G2 GE | E3 E | G2 G2 | G2 EF | E2 E2 | E4 | z4 | z4 | z4 | z4 | z2 z E | G2 G2 | G2 GF | E2 E2 | %28
w: guil- ty *|fall Cor-|rupts the|race, and *|taints us|all.|||||The|seeds of|sin grow *|up for|
w: flood, nor *|sea Can|wash the|dis- mal *|stain a-|way.|||||My|on- ly|re- fuge *|is thy|
 E3 E | E2 E2 | G2 GE | A2 GA | G3 E | E>F G2 | A2 E2 | F2 E2 | E4 | z2 E2 | EF G2 | A2 E2 | %40
w: death. The|law de-|mands a *|per- fect *|heart, But|we're * de-|filed in|eve- ry|part.|Great|God, * cre-|ate my|
w: grace. No|out- ward|forms can *|make me *|clean; The|le- * pro-|sy lies|deep with-|in.|While|guilt * dis-|turbs and|
 G>A GF | E3 E | AB cB | A2 A2 | G2 GE | G2 EG |: A2 BA | G2 z G | GE DF | E2 z E | E2 G2 | A2 E2 | %52
w: heart * a- *|new, And|form * my *|spi- rit|pure and *|true; O *|make me *|wise be-|times * to *|spy My|dan- ger|and my|
w: breaks * my *|peace, Nor|flesh * nor *|soul hath|rest or *|ease; Lord, *|let me *|hear thy|par- * d'ning *|voice, And|make my|bro- ken|
 F2 E2 |1 E2 EG :|2 E4- || E4 |] %56
w: re- me-|dy. O *|||
w: bones re-|joice. Lord, *|||
V:3
 A4 | A2 ^G2 | c2 cA | d2 cd | e2 ed | c2 e2 | dc B2 | cA ^G2 | A4 | z4 | z4 | e2 ee | e2 cA | %13
w: |||||||||||Sprung from the|man whose *|
w: |||||||||||Nor run- ning|brook, nor *|
 G2 GE | E3 z | z2 z c | e2 ec | d2 ed | cA GB | A4 | z4 | z4 | z4 | z4 | z2 z c | e2 ec | d2 dB | %27
w: guil- ty *|fall|||||||||||||
w: flood, nor *|sea,|||||||||||||
 c2 cA | B3 c | ec Ac | dB GB | cA dc | B3 G | A>G AB | cf e2 | dB ^G2 | A4 | z4 | z4 | z4 | z4 | %41
w: ||||||||||||||
w: ||||||||||||||
 z4 | z4 | z4 | z4 | z2 cd |: ec df | e2 z e | cA dc | B2 z G | A2 B2 | c>f ed | cA (3GAB |1 %53
w: ||||||||||||
w: ||||||||||||
 A2 cd :|2 A4- || A4 |] %56
w: |||
w: |||
V:4
 A,4 | A,2 B,2 | C2 A,2 | G,2 A,2 | E,2 C,D, | E,2 A,2 | D,2 G,2 | E,2 E,2 | A,,4 | E,2 E,E, | %10
w: |||||||||Sprung from the|
w: |||||||||Nor run- ning|
 G,2 G,2 | A,2 A,2 | E,4- | E,4- | E,4- | E,3 E, | C,2 C,2 | G,2 CB, | A,2 E,2 | A,,4 | z2 E,2 | %21
w: man whose|guil- ty|fall~|_|||||||Soon|
w: brook, nor|flood, nor|sea,~|_|||||||Be-|
 A,G, CB, | A,2 G,E, | D,C, D,F, | E,3 E, | C,2 C,2 | G,2 G,2 | A,2 A,2 | E,3 E, | A,2 C2 | %30
w: as * we *|draw our *|in- * fant *|breath, *||||||
w: hold, * I *|fall be- *|fore * thy *|face; *||||||
 B,2 G,2 | A,C B,A, | E,3 E, | A,B, CB, | A,2 E,C, | D,2 E,2 | A,,4 | z4 | z4 | z4 | z4 | z4 | z4 | %43
w: |||||||||||||
w: |||||||||||||
 z4 | z4 | z2 CB, |: A,2 D,2 | E,2 z C, | C,2 D,2 | E,2 z E, | A,2 G,2 | C2 (3B,A,^G, | A,2 E,2 |1 %53
w: ||||||||||
w: ||||||||||
"^Edited by B. C. Johnston, 2016\n   1. Measure 2, \nCounter\n: First note changed from G to G# (as in \nTenor\n).\n   2. Measure 7. Treble: Second note changed from G# to G (as in Counter and Tenor)." A,,2 CB, :|2 %54
w: |
w: |
 A,,4- || A,,4 |] %56
w: ||
w: ||

